assets/img/bi_apple.svg

<svg viewBox="0 0 512 512" fill="none" xmlns="http://www.w3.org/2000/svg"><g clip-path="url(#a)" fill="#000"><path d="M357.824.256c-1.088-1.216-40.288.48-74.4 37.504-34.112 36.992-28.864 79.424-28.096 80.512.768 1.088 48.64 2.784 79.2-40.256 30.56-43.04 24.384-76.512 23.296-77.76Zm106.048 375.456c-1.536-3.072-74.4-39.488-67.616-109.504 6.784-70.048 53.6-89.248 54.336-91.328.736-2.08-19.104-25.28-40.128-37.024a118.14 118.14 0 0 0-50.016-13.888c-3.456-.096-15.456-3.04-40.128 3.712-16.256 4.448-52.896 18.848-62.976 19.424-10.112.576-40.192-16.704-72.544-21.28-20.704-4-42.656 4.192-58.368 10.496-15.68 6.272-45.504 24.128-66.368 71.584-20.864 47.424-9.952 122.56-2.144 145.92 7.808 23.328 20 61.568 40.736 89.472 18.432 31.488 42.88 53.344 53.088 60.768 10.208 7.424 39.008 12.352 58.976 2.144 16.064-9.856 45.056-15.52 56.512-15.104 11.424.416 33.952 4.928 57.024 17.248 18.272 6.304 35.552 3.68 52.864-3.36 17.312-7.072 42.368-33.888 71.616-88.256 11.104-25.28 16.16-38.944 15.136-41.024Z"/><path d="M357.824.256c-1.088-1.216-40.288.48-74.4 37.504-34.112 36.992-28.864 79.424-28.096 80.512.768 1.088 48.64 2.784 79.2-40.256 30.56-43.04 24.384-76.512 23.296-77.76Zm106.048 375.456c-1.536-3.072-74.4-39.488-67.616-109.504 6.784-70.048 53.6-89.248 54.336-91.328.736-2.08-19.104-25.28-40.128-37.024a118.14 118.14 0 0 0-50.016-13.888c-3.456-.096-15.456-3.04-40.128 3.712-16.256 4.448-52.896 18.848-62.976 19.424-10.112.576-40.192-16.704-72.544-21.28-20.704-4-42.656 4.192-58.368 10.496-15.68 6.272-45.504 24.128-66.368 71.584-20.864 47.424-9.952 122.56-2.144 145.92 7.808 23.328 20 61.568 40.736 89.472 18.432 31.488 42.88 53.344 53.088 60.768 10.208 7.424 39.008 12.352 58.976 2.144 16.064-9.856 45.056-15.52 56.512-15.104 11.424.416 33.952 4.928 57.024 17.248 18.272 6.304 35.552 3.68 52.864-3.36 17.312-7.072 42.368-33.888 71.616-88.256 11.104-25.28 16.16-38.944 15.136-41.024Z"/></g><defs><clipPath id="a"><path fill="#fff" d="M0 0h512v512H0z"/></clipPath></defs></svg>

<svg viewBox="0 0 512 512" fill="none" xmlns="http://www.w3.org/2000/svg">
<g clip-path="url(#clip0_1930_3419)">
<path d="M357.824 0.25598C356.736 -0.96002 317.536 0.735981 283.424 37.76C249.312 74.752 254.56 117.184 255.328 118.272C256.096 119.36 303.968 121.056 334.528 78.016C365.088 34.976 358.912 1.50398 357.824 0.25598V0.25598ZM463.872 375.712C462.336 372.64 389.472 336.224 396.256 266.208C403.04 196.16 449.856 176.96 450.592 174.88C451.328 172.8 431.488 149.6 410.464 137.856C395.028 129.576 377.943 124.832 360.448 123.968C356.992 123.872 344.992 120.928 320.32 127.68C304.064 132.128 267.424 146.528 257.344 147.104C247.232 147.68 217.152 130.4 184.8 125.824C164.096 121.824 142.144 130.016 126.432 136.32C110.752 142.592 80.9281 160.448 60.0641 207.904C39.2001 255.328 50.1121 330.464 57.9201 353.824C65.7281 377.152 77.9201 415.392 98.6561 443.296C117.088 474.784 141.536 496.64 151.744 504.064C161.952 511.488 190.752 516.416 210.72 506.208C226.784 496.352 255.776 490.688 267.232 491.104C278.656 491.52 301.184 496.032 324.256 508.352C342.528 514.656 359.808 512.032 377.12 504.992C394.432 497.92 419.488 471.104 448.736 416.736C459.84 391.456 464.896 377.792 463.872 375.712V375.712Z" fill="black"/>
<path d="M357.824 0.25598C356.736 -0.96002 317.536 0.735981 283.424 37.76C249.312 74.752 254.56 117.184 255.328 118.272C256.096 119.36 303.968 121.056 334.528 78.016C365.088 34.976 358.912 1.50398 357.824 0.25598V0.25598ZM463.872 375.712C462.336 372.64 389.472 336.224 396.256 266.208C403.04 196.16 449.856 176.96 450.592 174.88C451.328 172.8 431.488 149.6 410.464 137.856C395.028 129.576 377.943 124.832 360.448 123.968C356.992 123.872 344.992 120.928 320.32 127.68C304.064 132.128 267.424 146.528 257.344 147.104C247.232 147.68 217.152 130.4 184.8 125.824C164.096 121.824 142.144 130.016 126.432 136.32C110.752 142.592 80.9281 160.448 60.0641 207.904C39.2001 255.328 50.1121 330.464 57.9201 353.824C65.7281 377.152 77.9201 415.392 98.6561 443.296C117.088 474.784 141.536 496.64 151.744 504.064C161.952 511.488 190.752 516.416 210.72 506.208C226.784 496.352 255.776 490.688 267.232 491.104C278.656 491.52 301.184 496.032 324.256 508.352C342.528 514.656 359.808 512.032 377.12 504.992C394.432 497.92 419.488 471.104 448.736 416.736C459.84 391.456 464.896 377.792 463.872 375.712V375.712Z" fill="black"/>
</g>
<defs>
<clipPath id="clip0_1930_3419">
<rect width="512" height="512" fill="white"/>
</clipPath>
</defs>
</svg>
